svgs/light/arrow-down-to-arc.svg

<svg xmlns="http://www.w3.org/2000/svg" viewBox="0 0 512 512"><!--! Font Awesome Pro 6.4.2 by @fontawesome - https://fontawesome.com License - https://fontawesome.com/license (Commercial License) Copyright 2023 Fonticons, Inc. --><path d="M256 480c123.7 0 224-100.3 224-224c0-8.8 7.2-16 16-16s16 7.2 16 16c0 141.4-114.6 256-256 256S0 397.4 0 256c0-8.8 7.2-16 16-16s16 7.2 16 16c0 123.7 100.3 224 224 224zM396 202.6l-128 144c-3 3.4-7.4 5.4-12 5.4s-8.9-2-12-5.4l-128-144c-5.9-6.6-5.3-16.7 1.3-22.6s16.7-5.3 22.6 1.3L240 293.9 240 16c0-8.8 7.2-16 16-16s16 7.2 16 16l0 277.9L372 181.4c5.9-6.6 16-7.2 22.6-1.3s7.2 16 1.3 22.6z"/></svg>

<svg xmlns="http://www.w3.org/2000/svg" viewBox="0 0 512 512"><!--! Font Awesome Pro 6.1.1 by @fontawesome - https://fontawesome.com License - https://fontawesome.com/license (Commercial License) Copyright 2022 Fonticons, Inc. --><path d="M256 480C379.7 480 480 379.7 480 256C480 247.2 487.2 240 496 240C504.8 240 512 247.2 512 256C512 397.4 397.4 512 256 512C114.6 512 0 397.4 0 256C0 247.2 7.164 240 16 240C24.84 240 32 247.2 32 256C32 379.7 132.3 480 256 480zM267.1 346.6C264.9 350 260.6 352 256 352C251.4 352 247.1 350 244 346.6L116 202.6C110.2 196 110.8 185.9 117.4 180C123.1 174.2 134.1 174.8 139.1 181.4L240 293.9V16C240 7.164 247.2 0 256 0C264.8 0 272 7.164 272 16V293.9L372 181.4C377.9 174.8 388 174.2 394.6 180C401.2 185.9 401.8 196 395.1 202.6L267.1 346.6z"/></svg>
